!!! OTL: Berkowitz219
!!! Chapter: 1
!!! Section: II
!!! Page: 51
!!! Mode: 
!!! Encoder: DJB
**kern
*staff1
*I"Piano
=1-
*clefF4
*k[f#c#g#]
*A:
*M2/4
16AA/LL
16AA/
16AA/
16BB/JJ
16C#\LK
8E\
16D\Jk
=2
8C#/L
8BB/J
4AA/
=3
16E\LL
16E\
16E\
16E\JJ
16G#\LK
8B\
16A\Jk
=4
8G#\L
8F#\J
4E\
=5
16r
16A\LL
16A\
16A\JJ
16G#\LK
8E\
16C#\Jk
=6
16r
16F#\LL
16F#\
16F#\JJ
4E\
=7
16r
16D\LL
16E\
16F#\JJ
16E/LK
8C#/
16AA/Jk
=8
!!linebreak:original
16C#/LL
16AA/J
8BB/J
4AA/
==
*-
